packages/core/src/svgs/ar.svg

<svg width="24" height="24" viewBox="0 0 24 24" fill="none" xmlns="http://www.w3.org/2000/svg">
<g clip-path="url(#clip0_31_6035)">
<path d="M0 0H24V24H0V0Z" fill="#222326"/>
<path d="M11.9632 5.85307C8.58864 5.85307 5.85307 8.58864 5.85307 11.9632C5.85307 15.3374 8.58864 18.0729 11.9632 18.0729C15.3374 18.0729 18.0729 15.3374 18.0729 11.9632C18.0729 8.58864 15.3374 5.85307 11.9632 5.85307ZM4.71436 11.9632C4.71436 7.95993 7.95993 4.71436 11.9632 4.71436C15.9661 4.71436 19.2116 7.95993 19.2116 11.9632C19.2116 15.9661 15.9665 19.2116 11.9632 19.2116C7.95993 19.2116 4.71436 15.9665 4.71436 11.9632Z" fill="white"/>
<path d="M12.9842 14.1451C12.9493 14.0733 12.9218 13.9982 12.9019 13.9209C12.8782 13.8327 12.8586 13.7435 12.8432 13.6535C12.765 13.738 12.6787 13.8146 12.5856 13.8823C12.4883 13.9535 12.3799 14.0169 12.2595 14.0718C12.1345 14.1263 12.0041 14.1671 11.8703 14.1935C11.7185 14.227 11.5634 14.2434 11.4079 14.2423C11.155 14.2449 10.9034 14.2054 10.6635 14.1253C10.4518 14.0543 10.2554 13.9438 10.0849 13.7996C9.9247 13.6629 9.79528 13.4937 9.70519 13.3033C9.61357 13.1052 9.56702 12.8891 9.5689 12.6708C9.5689 12.1162 9.77462 11.6881 10.1869 11.3863C10.6022 11.0812 11.2198 10.9111 12.0405 10.9111H12.634V10.6175C12.634 10.1611 12.2878 9.79506 11.8313 9.79506C11.5558 9.79506 11.3543 9.89063 11.2279 10.0106C11.1015 10.1272 11.038 10.2849 11.038 10.4825H9.6859C9.6859 10.2588 9.73433 10.0462 9.83162 9.8452C9.93233 9.64377 10.0768 9.43206 10.2645 9.27949C10.456 9.12692 10.6879 9.00692 10.9605 8.91949C11.236 8.82863 11.5506 8.7832 11.9042 8.7832C12.2222 8.7832 12.517 8.8222 12.7896 8.9002C13.0656 8.97777 13.3039 9.09306 13.5053 9.24563C13.7059 9.39777 13.8636 9.59106 13.9768 9.8242C14.0903 10.0548 14.1473 10.3222 14.1473 10.6273V12.8846C14.1473 13.1671 14.1649 13.4006 14.2009 13.5853C14.2365 13.7701 14.2883 13.9291 14.3565 14.0623V14.1451H12.9842ZM12.2278 13.0209C12.418 12.9159 12.5548 12.7762 12.6319 12.6416V11.7682H12.1039C11.701 11.7682 11.1739 11.8111 10.9896 12.2328C10.873 12.4908 10.8996 12.8156 11.1113 13.0162C11.4276 13.3085 11.8939 13.2052 12.2278 13.0209Z" fill="white"/>
</g>
<defs>
<clipPath id="clip0_31_6035">
<rect width="24" height="24" fill="white"/>
</clipPath>
</defs>
</svg>

<svg xmlns="http://www.w3.org/2000/svg" width="24" height="24" fill="none" viewBox="0 0 24 24"><g clip-path="url(#a)"><path fill="#222326" d="M0 0h24v24H0z"/><path fill="#fff" d="M11.963 5.853a6.11 6.11 0 1 0 0 12.22 6.11 6.11 0 0 0 0-12.22m-7.249 6.11a7.249 7.249 0 1 1 14.498 0 7.249 7.249 0 0 1-14.498 0"/><path fill="#fff" d="M12.984 14.145a1.2 1.2 0 0 1-.082-.224 3 3 0 0 1-.059-.268 1.8 1.8 0 0 1-.584.419 2 2 0 0 1-.389.122q-.228.05-.462.048a2.3 2.3 0 0 1-.744-.117 1.8 1.8 0 0 1-.58-.325 1.5 1.5 0 0 1-.379-.497 1.5 1.5 0 0 1-.136-.632q0-.832.618-1.285c.415-.305 1.033-.475 1.854-.475h.593v-.293a.803.803 0 0 0-.803-.823c-.275 0-.477.096-.603.216a.61.61 0 0 0-.19.472H9.686q0-.336.146-.638c.1-.201.245-.413.432-.566q.288-.228.697-.36.413-.136.943-.136.477 0 .886.117.414.117.715.346t.472.578q.17.345.17.803v2.258q0 .424.054.7.053.277.155.477v.083zm-.756-1.124c.19-.105.327-.245.404-.38v-.873h-.528c-.403 0-.93.043-1.114.465-.117.258-.09.583.121.783.317.293.783.19 1.117.005"/></g><defs><clipPath id="a"><path fill="#fff" d="M0 0h24v24H0z"/></clipPath></defs></svg>
